X:93
T:The Galway Rambler
D:Terry Bingham
N:Z:id:hn-reel-485
M:4/4
L:1/8
K:G
G2dG eGdG|G2dG AGEF|GFGA BABd|1 gedB AGEF:|2 gedB A2Bd||
g3b agab|gabg agef|g3b agab|gedB A2Bd|
g3b agab|gabg a2ga|bgab gede|gedB AGEF||

